X: 21381
T: HART'S TENTH SET OF QUADRILLES Part 1
R: reel
B: K\"ohler's Violin Repository, v.2, 1885 p.138 #1
F: http://www.archive.org/details/klersviolinrepos02rugg
Z: 2012 John Chambers <jc:trillian.mit.edu>
M: 2/4
L: 1/16
K: Bm
[|\
vb4 b4 | b2ag f2ag | gfed fedc | edcB dcB^A |\
b4 b4 | b2ag f2ag | gfed fedc | B4 b4 ||
vd'4 d'4 | d'6 (de) | f2f2 e2e2 | (d2f2) e4 |\
d'4 d'4 | d'6 (ag) | f2f2 e2e2 | d6 d2 "^D.C."||
vf2a2g2c'2 | (d'2a2) f'4 | f2a2g2c'2 | (d'2a2) f'4 |\
d'6 (c'b) | abag fgfe | dcde =fef^g | a2A2 z4 "^D.C."|]

%%sep 2 1 500

